X:1
T:James Gibb editions
T:O little town of Bethlehem (III) - Barnby
%%score [ ( 1 2 ) ( 3 4 ) ]
L:1/8
Q:1/4=160
M:3/2
K:Eb
V:1 treble nm="Midi_74"
V:2 treble 
V:3 bass nm="Midi_74"
V:4 bass 
V:1
"^simply""^Phillips Brooks\n(1835-93)""^86. 86. 76. 86""^O little town of Bethlehem (III)""^Joseph Barnby\n(1838-96)"!p! B4 | %1
 A2 G2 F4 c4 | B2 A2 G4 || e4 | d6 c2 F2 c2 | B8 || G4 | G2 c2 c4 G4 | G2 c2 c4 || G4 | %10
 =A6 G2 F2 c2 | B8 ||!mf! D4 | D2 E2 F4 G4 | (A2 G2) A4 || B4 | G6 G2 A2 B2 | c8 ||!f! c4 x8 | %19
 c6 c2 d2 e2 | f2 B2 B4 || e4 x8 | G2 B2 A4 F4 | E8 x4 || E12 | E12 |] %26
V:2
 G4 | F2 E2 D4 A4 | G2 F2 E4 || E4 | A6 A2 D2 D2 | (E4 G4) || F4 | E2 E2 E4 D4 | C2 D2 E4 || E4 | %10
 E6 E2 F2 E2 | D8 || B,4 | B,2 C2 D4 E4 | (F2 =E2) F4 || D4 | E6 E2 F2 G2 | (A4 E4) || =E4 x8 | %19
 F2 A2 A4 A4 | A2 A2 G4 || ^F4 x8 | G2 E2 D4 D4 | E8 x4 || C12 | B,12 |] %26
V:3
!p! B,4 | B,2 B,2 B,4 B,4 |"^cresc." B,2 B,2 B,4 || B,4 | B,6 B,2 A,2 A,2 | B,8 || =B,4 | %7
 C2 G,2 G,4"^dim." F,4 | E,2 F,2 G,4 || C4 | C6 B,2 =A,2 A,2 | B,8 || %12
!mf!"^1 O little town of Bethlehem,\nhow still we see thee lie!\nabove thy deep and dreamless sleep\nthe silent stars go by:\nyet in thy dark streets shineth\nthe everlasting Light;\nthe hopes and fears of all the years\nare met in thee tonight.\n\n2 O morning stars, together\nproclaim the holy birth,\nand praises sing to God the King,\nand peace to men on earth.\nFor Christ is born of Mary;\nand, gathered all above,\nwhile mortals sleep, the angels keep\ntheir watch of wondering love." B,4 | %13
 B,2 B,2 B,4 B,4 | B,4 B,4 ||"^cresc." B,4 | B,2 B,2 E4 _D4 | C8 ||!f! B,4 A,2 C2 C4 | %19
"^3 How silently, how silently,\nthe wondrous gift is given!\nso God imparts to human hearts\nthe blessings of his heaven.\nNo ear may hear his coming;\nbut in this world of sin,\nwhere meek souls will receive him, still\nthe dear Christ enters in.\n\n4 O holy Child of Bethlehem,\ndescend to us, we pray;\ncast out our sin, and enter in:\nbe born in us today.\nWe hear the Christmas angels\nthe great glad tidings tell:\nO come to us, abide with us,\nour Lord Emmanuel." C4 B,2 B,2 B,4 | %20
 C4 x4 || B,2 G,2 F,4 A,4 | G,8 x4 | A,12 || [E,G,]12 | x12 |] %26
V:4
 E,4 | E,2 E,2 E,4 E,4 | E,2 E,2 E,4 || G,4 | F,6 F,2 A,2 A,2 | (G,4 E,4) || D,4 | %7
 C,2 C,2 C,4 C,4 | C,2 C,2 C,4 || C,4 | F,6 F,2 F,2 F,2 | B,,8 || B,4 | A,2 G,2 F,4 E,4 | %14
 (D,2 ^C,2) D,4 || B,,4 | E,2 E,2 E,4 E,4 | A,8 || G,4 x8 | F,2 F,2 F,4 E,4 | D,2 D,2 E,4 || %21
 =A,,4 x8 | B,,2 B,,2 B,,4 B,,4 | E,8 x4 || A,,12 | E,,12 |] %26

